.local/share/icons/Gruvbox-Plus-Dark/actions/16/draw-geometry-line-segment.svg

<svg width="16" height="16" version="1.1" xmlns="http://www.w3.org/2000/svg">
  <defs>
    <style id="current-color-scheme" type="text/css">.ColorScheme-Text { color:#ebdbb2; } .ColorScheme-Highlight { color:#458588; }</style>
  </defs>
  <path class="ColorScheme-Text" d="m3 12.29v0.708h0.708l-2 2h-0.708v-0.708zm11.29-11.29h0.708v0.708l-2 2v-0.708h-0.708zm-5.292 5.292v0.708h0.708l-2.708 2.708v-0.708h-0.708zm-6 2.708h4v4h-4zm6-6h4v4h-4z" fill="currentColor"/>
</svg>

<svg xmlns="http://www.w3.org/2000/svg" width="16" height="16" version="1.1">
 <defs>
  <style id="current-color-scheme" type="text/css">
   .ColorScheme-Text { color:#565656; } .ColorScheme-Highlight { color:#4285f4; }
  </style>
 </defs>
 <path style="fill:currentColor" class="ColorScheme-Text" d="M 3,12.292 V 13 H 3.708 L 1.708,15 H 1 V 14.292 Z M 14.292,1 H 15 V 1.708 L 13,3.708 V 3 H 12.292 Z M 9,6.292 V 7 H 9.708 L 7,9.708 V 9 H 6.292 Z M 3,9 H 7 V 13 H 3 Z M 9,3 H 13 V 7 H 9 Z"/>
</svg>
